img/svg/icon-font/trash.svg

<svg width="22" height="22" viewBox="0 0 22 22" fill="none" xmlns="http://www.w3.org/2000/svg">
<path d="M20.2812 3.56641H15.082V2.57812C15.082 1.15655 13.9255 0 12.5039 0H9.49609C8.07452 0 6.91797 1.15655 6.91797 2.57812V3.56641H1.71875C1.24412 3.56641 0.859375 3.95115 0.859375 4.42578C0.859375 4.90041 1.24412 5.28516 1.71875 5.28516H2.60872L3.65604 18.8627C3.65634 18.8667 3.65668 18.8707 3.65703 18.8747C3.73506 19.7308 4.12771 20.5215 4.76261 21.1011C5.39752 21.6808 6.22063 22 7.0803 22H14.9197C16.7101 22 18.1818 20.6666 18.343 18.8984C18.3861 18.4257 18.0379 18.0076 17.5652 17.9645C17.0921 17.9214 16.6744 18.2696 16.6313 18.7423C16.5513 19.6197 15.8155 20.2812 14.9197 20.2812H7.0803C6.18754 20.2812 5.45286 19.6122 5.36916 18.724L4.33258 5.28516H17.6674L16.9334 14.8011C16.8969 15.2743 17.251 15.6875 17.7242 15.724C17.7467 15.7257 17.769 15.7266 17.7912 15.7266C18.2358 15.7266 18.6123 15.384 18.6471 14.9333L19.3913 5.28516H20.2812C20.7559 5.28516 21.1406 4.90041 21.1406 4.42578C21.1406 3.95115 20.7559 3.56641 20.2812 3.56641ZM13.3633 3.56641H8.63672V2.57812C8.63672 2.10427 9.02223 1.71875 9.49609 1.71875H12.5039C12.9778 1.71875 13.3633 2.10427 13.3633 2.57812V3.56641Z" fill="#4C51CB"/>
<path d="M7.09537 7.00514C6.62121 7.02585 6.25361 7.42701 6.27432 7.90121L6.70401 17.7382C6.72416 18.1996 7.10456 18.5601 7.56192 18.5601C7.57455 18.5601 7.58732 18.5598 7.60008 18.5592C8.07424 18.5385 8.44183 18.1374 8.42112 17.6632L7.99144 7.82615C7.97073 7.35203 7.5688 6.98383 7.09537 7.00514Z" fill="#4C51CB"/>
<path d="M14.0086 7.82552L13.5789 17.6625C13.5582 18.1367 13.9258 18.5379 14.4 18.5586C14.4127 18.5592 14.4254 18.5595 14.4381 18.5595C14.8954 18.5595 15.2759 18.199 15.296 17.7376L15.7257 7.90059C15.7464 7.42643 15.3788 7.02523 14.9047 7.00452C14.4313 6.98333 14.0293 7.35136 14.0086 7.82552Z" fill="#4C51CB"/>
<path d="M10.1406 7.86328V17.7002C10.1406 18.1749 10.5254 18.5596 11 18.5596C11.4746 18.5596 11.8594 18.1749 11.8594 17.7002V7.86328C11.8594 7.38865 11.4746 7.00391 11 7.00391C10.5254 7.00391 10.1406 7.38865 10.1406 7.86328Z" fill="#4C51CB"/>
</svg>

<svg width="22" height="22" fill="none" xmlns="http://www.w3.org/2000/svg"><path d="M20.281 3.566h-5.199v-.988A2.581 2.581 0 0012.504 0H9.496a2.581 2.581 0 00-2.578 2.578v.988h-5.2a.86.86 0 100 1.72h.89l1.048 13.577.001.012A3.43 3.43 0 004.763 21.1a3.43 3.43 0 002.317.9h7.84c1.79 0 3.262-1.333 3.423-3.102a.86.86 0 10-1.712-.156 1.699 1.699 0 01-1.711 1.54H7.08a1.71 1.71 0 01-1.71-1.558L4.332 5.285h13.334l-.734 9.516a.86.86 0 001.714.132l.744-9.648h.89a.86.86 0 100-1.719zm-6.918 0H8.637v-.988a.86.86 0 01.86-.86h3.007a.86.86 0 01.86.86v.988z" fill="#4C51CB"/><path d="M7.095 7.005a.86.86 0 00-.82.896l.429 9.837a.86.86 0 101.717-.075l-.43-9.837a.86.86 0 00-.896-.82zm6.914.821l-.43 9.837a.86.86 0 001.717.075l.43-9.837a.86.86 0 00-1.717-.075zm-3.869.037V17.7a.86.86 0 101.72 0V7.863a.86.86 0 00-1.72 0z" fill="#4C51CB"/></svg>
